X:20029
T:Tramp! Tramp! Tramp!
T:God Save Ireland
R:Hornpipe
C:George Frederick Root, 1864
O:USA, then Ireland
Z:Paul Hardy's Session Tunebook 2022 (see www.paulhardy.net). Creative Commons cc by-nc-sa licenced.
M:4/4
L:1/8
Q:1/4=120
K:D
AG|"D" FA de d2 dc|"G" Bc dB "D" A2 AG|FA de ff ed|"A7"e6|
AG|"D" FA de d2 dc|"G" Bc dB "D" A2 fe|"G" dc dB "A" cA ce|"D"d6||
Ad|"D" f2 f2 "G" fe dB|"D" A4 d4|"A" e2 e2 "D" fe df|"A7"e6|
AG|"D" FA de d2 dc|"G" Bc dB "D" A2 fe|"G" dc dB "A7" cA ce|"D"d6|]

